source/img/icon-fb.svg

<svg width="10" height="19" viewBox="0 0 10 19" fill="none" xmlns="http://www.w3.org/2000/svg">
<path d="M6.96195 3.43458H9.32129V0H6.54782V0.0123865C3.18728 0.12968 2.49853 1.99126 2.43782 3.94648H2.43091V5.66154H0.142578V9.02503H2.43091V18.041H5.87955V9.02503H8.70456L9.25028 5.66154H5.88069V4.62535C5.88069 3.96457 6.32686 3.43458 6.96195 3.43458Z" fill="#6A6454"/>
</svg>

<svg width="10" height="19" fill="none" xmlns="http://www.w3.org/2000/svg"><path d="M6.962 3.435h2.36V0H6.547v.012c-3.36.118-4.05 1.98-4.11 3.934H2.43v1.716H.143v3.363H2.43v9.016h3.45V9.025h2.825l.545-3.363H5.88V4.625c0-.66.447-1.19 1.082-1.19z" fill="#6A6454"/></svg>
